X:25
T:Lady Hardwicks Reel. LIT.025
M:2/4
Q:1/4=140
L:1/8
B:Wm. Litten MS, 1802
Z:Village Music Project 2017 Anne Wride
K:D
g | f2 df | ae eg | f2 df | eA Ag |
f2 df | ae eg | fd ef | ddd :|
|: A | FA AA | B2 Ac | dB AF | GE EG |
FA AA | B2 Ag | fa ef | ddd :|

